**kern	**kern
*staff2	*staff1
*clefG2	*clefG2
*k[b-e-a-]	*k[b-e-a-]
*M3/4	*M3/4
*c:	*c:
=-	=-
4r	4g
=158	=158
2.c 2.e-	(4g
.	4ee-
.	4cc)
=159	=159
2.c 2.f 2.a-	(4cc
.	4ff
.	4ee-
=160	=160
2.c 2.d 2.f 2.a-	4dd
.	4cc
.	4b)
=161	=161
2c 2e- 2g	(4dd
.	4cc)
4e- 4g	4cc
=162	=162
2f 2a-	(2cc 2dd
4g 4b-	4cc) 4ee
=163	=163
4a-	(8ccL 8ff
.	8aa-J
4r	8ggL
.	8ffJ
*clefF4	*
(4F 4f	8ee-L
.	8ddJ
=164	=164
4G) 4e-	4cc)
4r	4r
4G' 4d'	4f' 4b'
=165	=165
4C' 4c'	4e-' 4cc'
4r	4r
=	=
*-	*-
